X:4495
T:My Darling Asleep
O:england
R:double jig
M:6/8
L:1/8
K:D
|:e|fdd cAA|BcB A2G|FAA def|gfg eag|
fdd cAA|BcB A2G|FAA dfa|gec d2:|
A|FAA ABA|FAA BAG|FAA def|gfg eag|
fdd cAA|BAG A2G|FAA dfa|gec d2:|
